images/usecases/scada/chemical-1.svg

<svg width="262" height="322" viewBox="0 0 262 322" fill="none" xmlns="http://www.w3.org/2000/svg">
<path d="M60.25 108C60.25 56.4995 101.999 14.75 153.5 14.75C205.001 14.75 246.75 56.4995 246.75 108C246.75 159.501 205.001 201.25 153.5 201.25C101.999 201.25 60.25 159.501 60.25 108Z" stroke="#3E9AF8" stroke-width="1.5"/>
<path d="M169.135 137.011C169.135 138.209 168.164 139.18 166.966 139.18C165.768 139.18 164.797 138.209 164.797 137.011C164.797 135.813 165.768 134.842 166.966 134.842C168.164 134.842 169.135 135.813 169.135 137.011Z" fill="#3E9AF8"/>
<path d="M186.85 139.181C186.85 140.379 185.879 141.35 184.681 141.35C183.483 141.35 182.512 140.379 182.512 139.181C182.512 137.983 183.483 137.012 184.681 137.012C185.879 137.012 186.85 137.983 186.85 139.181Z" fill="#3E9AF8"/>
<path d="M178.713 131.769C178.713 132.966 177.742 133.938 176.544 133.938C175.346 133.938 174.375 132.966 174.375 131.769C174.375 130.571 175.346 129.6 176.544 129.6C177.742 129.6 178.713 130.571 178.713 131.769Z" fill="#3E9AF8"/>
<path d="M189.74 127.612C189.74 128.81 188.769 129.781 187.571 129.781C186.373 129.781 185.402 128.81 185.402 127.612C185.402 126.414 186.373 125.443 187.571 125.443C188.769 125.443 189.74 126.414 189.74 127.612Z" fill="#3E9AF8"/>
<path d="M169.135 125.442C169.135 126.64 168.164 127.611 166.966 127.611C165.768 127.611 164.797 126.64 164.797 125.442C164.797 124.245 165.768 123.273 166.966 123.273C168.164 123.273 169.135 124.245 169.135 125.442Z" fill="#3E9AF8"/>
<path fill-rule="evenodd" clip-rule="evenodd" d="M139.033 68.8607C137.664 69.4251 136.101 69.2519 134.889 68.4015C134.171 67.8982 133.302 67.6035 132.352 67.6035C130.083 67.6035 128.208 69.313 127.953 71.5116C127.749 73.2781 126.487 74.7408 124.769 75.2021C122.418 75.8337 120.693 77.9844 120.693 80.5269C120.693 83.5715 123.162 86.0397 126.206 86.0397C128.386 86.0397 130.278 84.7751 131.175 82.9202C131.732 81.7682 132.768 80.9208 134.008 80.6044C135.248 80.2881 136.564 80.5351 137.604 81.2793C138.772 82.1148 140.198 82.6055 141.75 82.6055C144.163 82.6055 146.297 81.4133 147.596 79.5666C148.942 77.6531 151.563 77.152 153.521 78.4339C154.058 78.7857 154.697 78.9906 155.397 78.9906C157.293 78.9906 158.831 77.453 158.831 75.5564C158.831 73.6597 157.293 72.1222 155.397 72.1222C154.713 72.1222 154.088 72.3177 153.559 72.6541C151.585 73.91 148.971 73.3743 147.65 71.4432C146.357 69.5525 144.196 68.3265 141.75 68.3265C140.78 68.3265 139.865 68.5178 139.033 68.8607ZM151.23 68.9942C149.163 65.9719 145.688 63.9886 141.75 63.9886C140.203 63.9886 138.727 64.2949 137.38 64.8501C135.956 63.8516 134.222 63.2656 132.352 63.2656C127.855 63.2656 124.149 66.6514 123.644 71.0128C119.446 72.1405 116.355 75.9728 116.355 80.5269C116.355 85.9673 120.766 90.3776 126.206 90.3776C128.906 90.3776 131.353 89.2911 133.132 87.5314C133.927 86.7455 134.589 85.8253 135.081 84.8076C136.131 85.5589 137.313 86.1375 138.586 86.5018C139.591 86.7894 140.653 86.9434 141.75 86.9434C145.634 86.9434 149.067 85.0146 151.144 82.0627C152.366 82.8631 153.827 83.3285 155.397 83.3285C159.689 83.3285 163.169 79.8488 163.169 75.5564C163.169 71.264 159.689 67.7843 155.397 67.7843C153.864 67.7843 152.435 68.2281 151.23 68.9942Z" fill="#3E9AF8"/>
<path fill-rule="evenodd" clip-rule="evenodd" d="M171.326 63.3826C172.459 62.9955 173.692 63.6007 174.079 64.7343C175.563 69.0799 174.734 72.3689 174.048 74.8291C173.328 77.4117 173.115 78.3167 173.843 79.4331C174.498 80.4364 174.215 81.7803 173.211 82.4346C172.208 83.089 170.864 82.8061 170.21 81.8027C168.357 78.9624 169.154 76.1742 169.748 74.0937C169.79 73.9469 169.831 73.8036 169.869 73.664C170.494 71.4248 171.021 69.2011 169.974 66.1361C169.587 65.0024 170.192 63.7697 171.326 63.3826ZM114.73 94.5354C114.73 93.3375 115.701 92.3664 116.899 92.3664H128.647C129.845 92.3664 130.816 93.3375 130.816 94.5354V123.726H136.51V110.803C136.51 109.971 136.986 109.212 137.735 108.85L159.605 98.2762C160.277 97.9512 161.069 97.9948 161.702 98.3915C162.334 98.7882 162.718 99.4823 162.718 100.229V114.146C162.718 115.344 161.747 116.315 160.549 116.315C159.351 116.315 158.38 115.344 158.38 114.146V103.687L141.232 111.977H152.235C153.433 111.977 154.404 112.948 154.404 114.146C154.404 115.344 153.433 116.315 152.235 116.315H140.848V117.852H152.235C153.433 117.852 154.404 118.823 154.404 120.021C154.404 121.219 153.433 122.19 152.235 122.19H140.848V123.726H154.223C155.421 123.726 156.392 124.697 156.392 125.895C156.392 127.093 155.421 128.064 154.223 128.064H111.838V131.317H135.245C136.442 131.317 137.414 132.288 137.414 133.486C137.414 134.684 136.442 135.655 135.245 135.655H111.838V148.217H173.021C174.219 148.217 175.19 149.188 175.19 150.386C175.19 151.584 174.219 152.555 173.021 152.555H109.669C108.471 152.555 107.5 151.584 107.5 150.386V125.895C107.5 124.697 108.471 123.726 109.669 123.726H114.73V94.5354ZM119.068 123.726H126.478V96.7043H119.068V123.726Z" fill="#3E9AF8"/>
<path fill-rule="evenodd" clip-rule="evenodd" d="M179.538 63.3826C180.672 62.9955 181.905 63.6007 182.292 64.7343C183.776 69.0804 182.947 72.3241 182.258 74.7494C181.539 77.2764 181.33 78.1389 182.056 79.2524C182.71 80.2558 182.427 81.5997 181.424 82.254C180.42 82.9084 179.077 82.6255 178.422 81.6221C176.568 78.7783 177.367 76.0309 177.963 73.984C178.005 73.8402 178.046 73.6998 178.085 73.5631C178.706 71.3793 179.233 69.2006 178.186 66.1361C177.799 65.0024 178.405 63.7697 179.538 63.3826Z" fill="#3E9AF8"/>
<path fill-rule="evenodd" clip-rule="evenodd" d="M156.248 121.282C155.845 120.154 156.433 118.912 157.561 118.509C160.361 117.509 163.657 117.358 166.965 117.528C170.094 117.688 173.445 118.152 176.662 118.598C176.866 118.626 177.069 118.655 177.272 118.683C180.726 119.16 183.999 119.592 186.911 119.66C189.857 119.73 192.141 119.414 193.739 118.613C194.81 118.076 196.113 118.509 196.65 119.58C197.187 120.65 196.754 121.954 195.683 122.491C193.124 123.774 189.975 124.072 186.809 123.997C183.609 123.922 180.093 123.451 176.678 122.98C176.494 122.954 176.309 122.929 176.125 122.903C172.853 122.45 169.677 122.011 166.742 121.86C163.622 121.699 161.01 121.883 159.021 122.594C157.892 122.997 156.651 122.41 156.248 121.282Z" fill="#3E9AF8"/>
<path fill-rule="evenodd" clip-rule="evenodd" d="M176.363 148.398C186.745 148.398 195.161 139.982 195.161 129.6C195.161 119.41 186.127 110.803 175.55 110.803C165.168 110.803 156.752 119.219 156.752 129.6C156.752 139.79 165.785 148.398 176.363 148.398ZM176.363 152.736C189.14 152.736 199.499 142.378 199.499 129.6C199.499 116.823 188.327 106.465 175.55 106.465C162.772 106.465 152.414 116.823 152.414 129.6C152.414 142.378 163.586 152.736 176.363 152.736Z" fill="#3E9AF8"/>
<path fill-rule="evenodd" clip-rule="evenodd" d="M162.539 88.1182C162.539 86.9203 163.51 85.9492 164.708 85.9492H187.844C189.041 85.9492 190.013 86.9203 190.013 88.1182C190.013 89.3161 189.041 90.2871 187.844 90.2871H185.313V109.627C185.313 110.825 184.342 111.796 183.144 111.796C181.946 111.796 180.975 110.825 180.975 109.627V90.2871H170.853V109.627C170.853 110.825 169.882 111.796 168.684 111.796C167.487 111.796 166.515 110.825 166.515 109.627V90.2871H164.708C163.51 90.2871 162.539 89.3161 162.539 88.1182Z" fill="#3E9AF8"/>
<path d="M0.5 110H43.5" stroke="#3E9AF8" stroke-width="1.5"/>
<line y1="-0.75" x2="80" y2="-0.75" transform="matrix(-4.37112e-08 -1 -1 4.37112e-08 150.5 298)" stroke="#3E9AF8" stroke-width="1.5"/>
<mask id="path-16-inside-1_10346_18823" fill="white">
<path d="M42.5003 109.256C42.4682 123.656 45.2768 137.921 50.7653 151.235C56.2538 164.548 64.3143 176.648 74.4854 186.842C84.6565 197.036 96.7384 205.123 110.039 210.641C123.34 216.159 137.599 219 151.999 219L151.999 217.604C137.783 217.604 123.706 214.8 110.574 209.352C97.4427 203.904 85.5148 195.92 75.4733 185.856C65.4319 175.792 57.474 163.846 52.0555 150.703C46.637 137.559 43.8642 123.476 43.8958 109.259L42.5003 109.256Z"/>
</mask>
<path d="M42.5003 109.256C42.4682 123.656 45.2768 137.921 50.7653 151.235C56.2538 164.548 64.3143 176.648 74.4854 186.842C84.6565 197.036 96.7384 205.123 110.039 210.641C123.34 216.159 137.599 219 151.999 219L151.999 217.604C137.783 217.604 123.706 214.8 110.574 209.352C97.4427 203.904 85.5148 195.92 75.4733 185.856C65.4319 175.792 57.474 163.846 52.0555 150.703C46.637 137.559 43.8642 123.476 43.8958 109.259L42.5003 109.256Z" fill="#91A3BE" stroke="#3E9AF8" stroke-width="2" mask="url(#path-16-inside-1_10346_18823)"/>
<circle cx="12" cy="12" r="11.25" transform="matrix(1 0 0 -1 139.5 322)" fill="#F4F8FE" stroke="#3E9AF8" stroke-width="1.5"/>
</svg>

<svg width="262" height="322" fill="none" xmlns="http://www.w3.org/2000/svg"><path d="M60.25 108c0-51.5 41.749-93.25 93.25-93.25S246.75 56.5 246.75 108c0 51.501-41.749 93.25-93.25 93.25S60.25 159.501 60.25 108Z" stroke="#3E9AF8" stroke-width="1.5"/><path d="M169.135 137.011a2.169 2.169 0 1 1-4.338 0 2.169 2.169 0 0 1 4.338 0ZM186.85 139.181a2.169 2.169 0 1 1-4.338 0 2.169 2.169 0 0 1 4.338 0ZM178.713 131.769a2.17 2.17 0 1 1-4.339-.001 2.17 2.17 0 0 1 4.339.001ZM189.74 127.612a2.169 2.169 0 1 1-4.338 0 2.169 2.169 0 0 1 4.338 0ZM169.135 125.442a2.169 2.169 0 1 1-4.338 0 2.169 2.169 0 0 1 4.338 0Z" fill="#3E9AF8"/><path fill-rule="evenodd" clip-rule="evenodd" d="M139.033 68.86a4.338 4.338 0 0 1-4.144-.459 4.43 4.43 0 0 0-6.936 3.11 4.337 4.337 0 0 1-3.184 3.691 5.513 5.513 0 1 0 6.406 7.718 4.338 4.338 0 0 1 6.429-1.64 7.088 7.088 0 0 0 4.146 1.326 7.125 7.125 0 0 0 5.846-3.04 4.338 4.338 0 0 1 5.925-1.132 3.434 3.434 0 1 0 .038-5.78 4.338 4.338 0 0 1-5.909-1.21 7.128 7.128 0 0 0-5.9-3.118c-.97 0-1.885.192-2.717.535Zm12.197.134a11.465 11.465 0 0 0-9.48-5.005c-1.547 0-3.023.306-4.37.861a8.768 8.768 0 0 0-13.736 6.163c-4.198 1.127-7.289 4.96-7.289 9.514 0 5.44 4.411 9.85 9.851 9.85 2.7 0 5.147-1.086 6.926-2.846a9.878 9.878 0 0 0 1.949-2.723 11.423 11.423 0 0 0 6.669 2.135c3.884 0 7.317-1.928 9.394-4.88a7.772 7.772 0 1 0 .086-13.069ZM171.326 63.383a2.169 2.169 0 0 1 2.753 1.351c1.484 4.346.655 7.635-.031 10.095-.72 2.583-.933 3.488-.205 4.604a2.168 2.168 0 1 1-3.633 2.37c-1.853-2.84-1.056-5.629-.462-7.71.042-.146.083-.29.121-.429.625-2.24 1.152-4.463.105-7.528a2.169 2.169 0 0 1 1.352-2.753ZM114.73 94.535c0-1.197.971-2.169 2.169-2.169h11.748c1.198 0 2.169.972 2.169 2.17v29.19h5.694v-12.923a2.17 2.17 0 0 1 1.225-1.953l21.87-10.574a2.17 2.17 0 0 1 3.113 1.953v13.917a2.169 2.169 0 1 1-4.338 0v-10.459l-17.148 8.29h11.003a2.169 2.169 0 1 1 0 4.338h-11.387v1.537h11.387a2.169 2.169 0 1 1 0 4.338h-11.387v1.536h13.375a2.169 2.169 0 1 1 0 4.338h-42.385v3.253h23.407a2.17 2.17 0 0 1 0 4.338h-23.407v12.562h61.183a2.169 2.169 0 1 1 0 4.338h-63.352a2.169 2.169 0 0 1-2.169-2.169v-24.491c0-1.198.971-2.169 2.169-2.169h5.061v-29.19Zm4.338 29.191h7.41V96.704h-7.41v27.022ZM179.538 63.383a2.17 2.17 0 0 1 2.754 1.351c1.484 4.346.655 7.59-.034 10.015-.719 2.527-.928 3.39-.202 4.503a2.17 2.17 0 0 1-3.634 2.37c-1.854-2.844-1.055-5.591-.459-7.638l.122-.42c.621-2.185 1.148-4.363.101-7.428a2.17 2.17 0 0 1 1.352-2.753Z" fill="#3E9AF8"/><path fill-rule="evenodd" clip-rule="evenodd" d="M156.248 121.282a2.17 2.17 0 0 1 1.313-2.773c2.8-1 6.096-1.151 9.404-.981 3.129.16 6.48.624 9.697 1.07l.61.085c3.454.477 6.727.909 9.639.977 2.946.07 5.23-.246 6.828-1.047a2.169 2.169 0 1 1 1.944 3.878c-2.559 1.283-5.708 1.581-8.874 1.506-3.2-.075-6.716-.546-10.131-1.017l-.553-.077c-3.272-.453-6.448-.892-9.383-1.043-3.12-.161-5.732.023-7.721.734a2.17 2.17 0 0 1-2.773-1.312Z" fill="#3E9AF8"/><path fill-rule="evenodd" clip-rule="evenodd" d="M176.363 148.398c10.382 0 18.798-8.416 18.798-18.798 0-10.19-9.034-18.797-19.611-18.797-10.382 0-18.798 8.416-18.798 18.797 0 10.19 9.033 18.798 19.611 18.798Zm0 4.338c12.777 0 23.136-10.358 23.136-23.136 0-12.777-11.172-23.135-23.949-23.135-12.778 0-23.136 10.358-23.136 23.135 0 12.778 11.172 23.136 23.949 23.136Z" fill="#3E9AF8"/><path fill-rule="evenodd" clip-rule="evenodd" d="M162.539 88.118c0-1.198.971-2.169 2.169-2.169h23.136a2.17 2.17 0 0 1 0 4.338h-2.531v19.34a2.169 2.169 0 1 1-4.338 0v-19.34h-10.122v19.34a2.169 2.169 0 1 1-4.338 0v-19.34h-1.807a2.169 2.169 0 0 1-2.169-2.169Z" fill="#3E9AF8"/><path d="M.5 110h43M151.25 298v-80" stroke="#3E9AF8" stroke-width="1.5"/><mask id="a" fill="#fff"><path d="M42.5 109.256a109.505 109.505 0 0 0 67.539 101.385 109.503 109.503 0 0 0 41.96 8.359v-1.396A108.104 108.104 0 0 1 43.896 109.259l-1.396-.003Z"/></mask><path d="M42.5 109.256a109.505 109.505 0 0 0 67.539 101.385 109.503 109.503 0 0 0 41.96 8.359v-1.396A108.104 108.104 0 0 1 43.896 109.259l-1.396-.003Z" fill="#91A3BE" stroke="#3E9AF8" stroke-width="2" mask="url(#a)"/><circle cx="12" cy="12" r="11.25" transform="matrix(1 0 0 -1 139.5 322)" fill="#F4F8FE" stroke="#3E9AF8" stroke-width="1.5"/></svg>
